src/assets/img/icons/dark/icon-different-flash.svg

<svg width="44" height="44" viewBox="0 0 44 44" fill="none" xmlns="http://www.w3.org/2000/svg">
<path d="M19.1404 29.6186L17.6174 38.3247L15.6125 41.4815C14.4501 43.1025 11.8893 42.0505 12.2091 40.0833L14.5208 25.8664H15.8991C17.8979 25.8664 19.4309 27.6409 19.1404 29.6186ZM9.54923 27.0212C7.80935 25.9478 7.12457 23.5475 8.47789 21.6602L17.1019 7.9091L17.8182 3.91503C18.1361 1.94841 15.5764 0.898121 14.4146 2.5184L2.43764 21.6602C0.638994 24.1685 2.4391 27.5848 5.53359 27.5848H9.41219C9.45377 27.396 9.49905 27.208 9.54923 27.0212Z" fill="#565656"/>
<path d="M14.1093 44C13.6404 44 13.1622 43.9071 12.6967 43.715C11.1173 43.0628 10.2401 41.4926 10.5139 39.8077L12.2432 29.3031H5.53453C3.44075 29.3031 1.55309 28.1599 0.608228 26.3196C-0.315926 24.5197 -0.161614 22.3747 1.00793 20.707L12.9588 1.60687C12.9779 1.57629 12.998 1.5463 13.0191 1.517C14.0157 0.127075 15.7485 -0.368253 17.3307 0.284395C18.9098 0.935582 19.7879 2.50482 19.5157 4.18911L17.7559 14.7746H24.4061C26.5104 14.7746 28.4018 15.9124 29.3421 17.744C30.2679 19.5471 30.1145 21.6208 28.9341 23.3034L17.073 42.3886C17.053 42.4207 17.032 42.4521 17.01 42.483C16.306 43.4645 15.2351 43.9999 14.1093 44ZM15.8357 3.48826C15.8357 3.48826 3.85608 22.6323 3.83503 22.6616C3.18187 23.5724 3.49892 24.4253 3.66551 24.7498C4.02449 25.449 4.72319 25.8664 5.53444 25.8664H14.2675C14.772 25.8664 15.251 26.0881 15.5775 26.4728C15.9041 26.8574 16.045 27.366 15.9631 27.8639L13.9056 40.3625C13.8945 40.4308 13.8853 40.4874 14.0085 40.5384C14.1117 40.5808 14.157 40.5546 14.1922 40.5129L26.0425 21.4452C26.0624 21.413 26.0835 21.3816 26.1055 21.3507C26.7499 20.4521 26.4455 19.6268 26.2848 19.3137C25.9304 18.6235 25.2281 18.2114 24.4061 18.2114H15.7281C15.2231 18.2114 14.7437 17.9892 14.4172 17.604C14.0907 17.2188 13.9501 16.7094 14.0329 16.2112L16.124 3.63312C16.1344 3.56903 16.1436 3.51232 16.0204 3.46154C15.9161 3.41858 15.8709 3.44582 15.8357 3.48826Z" fill="white"/>
<path d="M33.5112 27.327C33.163 27.327 32.8116 27.2215 32.5076 27.0023C31.7378 26.4473 31.5638 25.3732 32.1188 24.6035L40.4548 13.0429C40.4963 12.9849 40.629 12.8001 40.5104 12.569C40.4676 12.4853 40.3316 12.2909 39.9968 12.2909H33.7704C33.2677 12.2909 32.7903 12.0708 32.4638 11.6886C32.1373 11.3064 31.9946 10.8004 32.073 10.304L32.8755 5.23145L28.7258 11.0543C28.1749 11.8273 27.1019 12.0072 26.329 11.4564C25.5562 10.9057 25.3762 9.83263 25.9269 9.05969L31.5278 1.20069C32.3063 0.116291 33.7062 -0.282979 34.9357 0.224464C36.1623 0.730961 36.8711 1.99845 36.6594 3.30701L35.7819 8.85417H39.9968C41.5205 8.85417 42.889 9.67642 43.5682 11.0002C44.2324 12.2948 44.1084 13.8467 43.2444 15.0502L34.9064 26.6136C34.5706 27.0792 34.0447 27.327 33.5112 27.327Z" fill="#D34214"/>
</svg>

<svg xmlns="http://www.w3.org/2000/svg" width="44" height="44" fill="none"><path fill="#565656" d="M19.14 29.62l-1.52 8.7-2 3.16c-1.17 1.62-3.73.57-3.41-1.4l2.31-14.21h1.38c2 0 3.53 1.77 3.24 3.75zm-9.6-2.6a3.72 3.72 0 01-1.06-5.36L17.1 7.91l.72-4c.32-1.96-2.24-3.01-3.4-1.4L2.43 21.67c-1.8 2.5 0 5.92 3.1 5.92H9.4c.04-.18.09-.37.14-.56z"/><path fill="#fff" d="M14.1 44c-.46 0-.94-.1-1.4-.28a3.55 3.55 0 01-2.19-3.91l1.73-10.5h-6.7A5.5 5.5 0 01.6 26.31a5.42 5.42 0 01.4-5.61L12.96 1.6c.02-.03.04-.06.06-.1A3.55 3.55 0 0117.33.29a3.55 3.55 0 012.19 3.9l-1.76 10.6h6.65c2.1 0 4 1.13 4.93 2.96a5.3 5.3 0 01-.4 5.56L17.06 42.4c-.02.03-.04.06-.06.1a3.55 3.55 0 01-2.9 1.51zm1.74-40.51s-11.98 19.14-12 19.17a1.96 1.96 0 00-.17 2.09c.35.7 1.05 1.12 1.86 1.12h8.74a1.72 1.72 0 011.7 2l-2.06 12.5c-.02.06-.02.12.1.17.1.04.15.01.18-.03l11.85-19.06a1.9 1.9 0 00.24-2.13 2.06 2.06 0 00-1.87-1.1h-8.68a1.72 1.72 0 01-1.7-2l2.1-12.59c0-.06.01-.12-.11-.17-.1-.04-.15-.01-.18.03z"/><path fill="#D34214" d="M33.51 27.33a1.72 1.72 0 01-1.4-2.72l8.34-11.57c.05-.06.18-.24.06-.47-.04-.08-.18-.28-.51-.28h-6.23a1.72 1.72 0 01-1.7-1.99l.8-5.07-4.14 5.82a1.72 1.72 0 11-2.8-1.99l5.6-7.86a2.84 2.84 0 015.13 2.1l-.88 5.55H40c1.52 0 2.89.83 3.57 2.15.66 1.3.54 2.85-.33 4.05l-8.33 11.56c-.34.47-.87.72-1.4.72z"/></svg>
